rospo-dark/16x16/actions/labplot-axis-vertical.svg

<svg height="16" viewBox="0 0 16 16" width="16" xmlns="http://www.w3.org/2000/svg"><path d="m1 0v14h-1v1h1v1h1v-1h14v-1h-14v-3.666016h2v-.9999996h-2v-8.3339844h2v-1h-2zm1.0078125 4.6660156v1h2v-1z" fill="#d3dae3"/></svg>

<?xml version="1.0" encoding="UTF-8" standalone="no"?>
<svg xmlns="http://www.w3.org/2000/svg" width="22" height="22" viewBox="0 0 22 22">
 <defs>
  <style type="text/css" id="current-color-scheme">
   .ColorScheme-Text { color:#d3dae3; } .ColorScheme-Highlight { color:#5294e2; }
  </style>
 </defs>
 <path style="fill:currentColor;opacity:1" class="ColorScheme-Text" transform="translate(3 3)" d="M 1 0 L 1 14 L 0 14 L 0 15 L 1 15 L 1 16 L 2 16 L 2 15 L 16 15 L 16 14 L 2 14 L 2 10.333984 L 4 10.333984 L 4 9.3339844 L 2 9.3339844 L 2 1 L 4 1 L 4 0 L 2 0 L 1 0 z M 2.0078125 4.6660156 L 2.0078125 5.6660156 L 4.0078125 5.6660156 L 4.0078125 4.6660156 L 2.0078125 4.6660156 z"/>
</svg>
